X: 4
T: Bo' Dodi [Bm]
O: Israel
R:
Z: John Chambers <jc:trillian.mit.edu>
M: 2/4
L: 1/16
K: Bm
|: "Bm"B2BA B2BA | B2c2 d2"A7"e2 |  "D"f2fe "Bm"f2fe | "Em"g2gf "A7"e4 |
| "D"fgfe "Bm"f2de | "Em"fge2 "F7"e2f2 | "Bm"B2BA B2BA | "F#7"d2dc "Bm"B4 :|
